images/bat.svg

<svg height="250" viewBox="0 0 250 250" width="250" xmlns="http://www.w3.org/2000/svg"><path d="m250 249.65625-124.402344-82.875-125.597656 83.21875zm0 0" fill="#662d91"/><path d="m125.640625 0-.042969 166.78125 124.402344 82.875zm0 0" fill="#9e1f63"/><path d="m0 250 125.597656-83.21875.042969-166.78125zm0 0" fill="#ff5000"/><path d="m1002.75 695.657812-410.84375 686.257032h823.53125zm0 0" fill="#fff" stroke="#ff5000" stroke-miterlimit="10" stroke-width="25" transform="scale(.125 .145433)"/></svg>

<svg xmlns="http://www.w3.org/2000/svg" xmlns:xlink="http://www.w3.org/1999/xlink" width="250px" height="250px" viewBox="0 0 250 250" version="1.1">
<g id="surface1">
<path style=" stroke:none;fill-rule:nonzero;fill:rgb(40.000001%,17.647059%,56.862748%);fill-opacity:1;" d="M 250 249.65625 L 125.597656 166.78125 L 0 250 Z M 250 249.65625 "/>
<path style=" stroke:none;fill-rule:nonzero;fill:rgb(61.960787%,12.156863%,38.82353%);fill-opacity:1;" d="M 125.640625 0 L 125.597656 166.78125 L 250 249.65625 Z M 125.640625 0 "/>
<path style=" stroke:none;fill-rule:nonzero;fill:rgb(100%,31.37255%,0%);fill-opacity:1;" d="M 0 250 L 125.597656 166.78125 L 125.640625 0 Z M 0 250 "/>
<path style="fill-rule:nonzero;fill:rgb(100%,100%,100%);fill-opacity:1;stroke-width:25;stroke-linecap:butt;stroke-linejoin:miter;stroke:rgb(100%,31.37255%,0%);stroke-opacity:1;stroke-miterlimit:10;" d="M 1002.75 695.657812 L 591.90625 1381.914844 L 1415.4375 1381.914844 Z M 1002.75 695.657812 " transform="matrix(0.125,0,0,0.145433,0,0)"/>
</g>
</svg>
